assets/Ace.svg

<svg width="822" height="1128" fill="none" xmlns="http://www.w3.org/2000/svg"><rect y="6" width="822" height="1122" rx="50" fill="#F1F7EE"/><path d="m246.142 552.858 150.716-150.716c7.81-7.81 20.474-7.81 28.284 0l150.716 150.716c7.81 7.81 7.81 20.474 0 28.284L425.142 731.858c-7.81 7.81-20.474 7.81-28.284 0L246.142 581.142c-7.81-7.81-7.81-20.474 0-28.284Z" fill="#F7081D"/><mask id="a" style="mask-type:alpha" maskUnits="userSpaceOnUse" x="411" y="396" width="171" height="342"><path fill="#D9D9D9" d="M411 396h171v342H411z"/></mask><g mask="url(#a)"><path d="m246.142 552.858 150.716-150.716c7.81-7.81 20.474-7.81 28.284 0l150.716 150.716c7.81 7.81 7.81 20.474 0 28.284L425.142 731.858c-7.81 7.81-20.474 7.81-28.284 0L246.142 581.142c-7.81-7.81-7.81-20.474 0-28.284Z" fill="#DC1021"/></g><path d="m58.535 279.464 42.929-42.928a5 5 0 0 1 7.072 0l42.928 42.928a5 5 0 0 1 0 7.072l-42.928 42.928a5 5 0 0 1-7.072 0l-42.928-42.928a5.001 5.001 0 0 1 0-7.072Z" fill="#F7081D"/><mask id="b" style="mask-type:alpha" maskUnits="userSpaceOnUse" x="105" y="235" width="48" height="96"><rect x="105" y="235.235" width="47.765" height="95.531" rx="5" fill="#D9D9D9"/></mask><g mask="url(#b)"><path d="m58.535 279.464 42.929-42.928a5 5 0 0 1 7.072 0l42.928 42.928a5 5 0 0 1 0 7.072l-42.928 42.928a5 5 0 0 1-7.072 0l-42.928-42.928a5.001 5.001 0 0 1 0-7.072Z" fill="#DC1021"/></g><path d="m78.8 155.2-9.2 27h12c2 0 3 1 3 3v9.8c0 2-1 3-3 3H39c-2 0-3-1-3-3v-9.8c0-2 1-3 3-3h11.8L90.8 65c.8-1.867 2.133-2.8 4-2.8h19.4c1.867 0 3.2.933 4 2.8l40.4 117.2h13.6c2 0 3 1 3 3v9.8c0 2-1 3-3 3H122c-2 0-3-1-3-3v-9.8c0-2 1-3 3-3h12.4l-9.4-27H78.8Zm23-73.8-19 58.8h37.8l-18.8-58.8ZM269.669 1066.87l-10.8-43.72h-3.9c-.75 0-1.125-.38-1.125-1.13v-3.82c0-.75.375-1.13 1.125-1.13h18.75c.75 0 1.125.38 1.125 1.13v3.82c0 .75-.375 1.13-1.125 1.13h-5.325l8.025 34.87 10.95-39.9c.2-.7.675-1.05 1.425-1.05h6.15c.75 0 1.225.35 1.425 1.05l10.875 40.13 8.625-35.1h-4.95c-.75 0-1.125-.38-1.125-1.13v-3.82c0-.75.375-1.13 1.125-1.13h15.825c.75 0 1.125.38 1.125 1.13v3.82c0 .75-.375 1.13-1.125 1.13h-3.975l-11.55 43.72c-.2.75-.675 1.13-1.425 1.13h-7.05c-.75 0-1.225-.35-1.425-1.05l-10.5-37.35-10.05 37.35c-.2.7-.675 1.05-1.425 1.05h-8.25c-.75 0-1.225-.38-1.425-1.13Zm77.174-21.15v-2.62c0-3.55-1-5.78-3-6.68-.95-.4-2.325-.6-4.125-.6-3.4 0-5.45 1.6-6.15 4.8-.15.75-.525 1.13-1.125 1.13h-4.8c-.8 0-1.15-.38-1.05-1.13.2-3.65 1.675-6.32 4.425-8.02 2.75-1.7 6.25-2.55 10.5-2.55 8.95 0 13.425 4.1 13.425 12.3v19.72h3.225c.75 0 1.125.38 1.125 1.13v3.67c0 .75-.375 1.13-1.125 1.13h-8.85c-.65 0-1.025-.38-1.125-1.13l-.525-3.45c-2.7 3.65-6.6 5.48-11.7 5.48-3.2 0-5.85-.83-7.95-2.48-2.1-1.7-3.15-4.4-3.15-8.1 0-4.85 2.025-8.17 6.075-9.97 3.35-1.55 7.35-2.4 12-2.55.95 0 2.25-.03 3.9-.08Zm.15 10.95v-5.77c-4.8 0-7.75.22-8.85.67-1.1.45-2.075.9-2.925 1.35-1.6.85-2.4 2.4-2.4 4.65 0 3.45 1.975 5.18 5.925 5.18 2.6 0 4.625-.6 6.075-1.8 1.45-1.25 2.175-2.68 2.175-4.28Zm28.041-19.65v18.9c0 2.35.3 4.05.9 5.1.6 1.05 1.725 1.58 3.375 1.58s3.25-.35 4.8-1.05c.55-.2.95 0 1.2.6l1.35 3.45c.05.15.075.37.075.67 0 .25-.25.53-.75.83-2.4 1.2-5.25 1.8-8.55 1.8-4.45 0-7.375-1.15-8.775-3.45-1-1.5-1.575-2.95-1.725-4.35-.2-1.9-.3-3.9-.3-6v-18.08h-4.275c-.75 0-1.125-.37-1.125-1.12v-3.9c0-.75.375-1.13 1.125-1.13h4.275v-10.12c0-.75.375-1.13 1.125-1.13h6.15c.75 0 1.125.38 1.125 1.13v10.12h7.575c.75 0 1.125.38 1.125 1.13v3.9c0 .75-.375 1.12-1.125 1.12h-7.575Zm32.636 31.88c-5.95 0-10.325-1.73-13.125-5.18-2.75-3.5-4.125-8.1-4.125-13.8 0-5.75 1.475-10.5 4.425-14.25 2.95-3.75 7.2-5.62 12.75-5.62 2.75 0 5.1.52 7.05 1.57 2 1 3.525 2.38 4.575 4.13 2 3.4 3 7.32 3 11.77 0 2.1-.1 3.25-.3 3.45-.2.2-.575.3-1.125.3h-22.05c.25 3.6 1.125 6.4 2.625 8.4 1.55 1.95 4.2 2.93 7.95 2.93 2.75 0 5.575-.65 8.475-1.95.7-.35 1.2-.15 1.5.6l1.425 3.45c.25.6.025 1.1-.675 1.5-3.3 1.8-7.425 2.7-12.375 2.7Zm-8.925-23.18h15.6c.1-6.25-2.35-9.37-7.35-9.37-2.95 0-5.05.95-6.3 2.85-1.2 1.85-1.85 4.02-1.95 6.52Zm40.744-8.4c.85-2 2.225-3.7 4.125-5.1 1.9-1.45 3.975-2.17 6.225-2.17 2.25 0 3.975.2 5.175.6.6.2.9.65.9 1.35v10.12c0 .75-.375 1.13-1.125 1.13h-4.875c-.75 0-1.1-.38-1.05-1.13l.3-4.35c-.25-.05-.675-.07-1.275-.07-2.3 0-4.2.95-5.7 2.85-1.5 1.85-2.25 4.35-2.25 7.5v14.02h8.25c.75 0 1.125.38 1.125 1.13v3.67c0 .75-.375 1.13-1.125 1.13h-20.625c-.75 0-1.125-.38-1.125-1.13v-3.67c0-.75.375-1.13 1.125-1.13h3.975v-25.05h-4.05c-.75 0-1.125-.37-1.125-1.12v-3.9c0-.75.375-1.13 1.125-1.13h9.9c.7 0 1.125.38 1.275 1.13l.825 5.32Zm34.513-.37v25.12h7.95c.75 0 1.125.38 1.125 1.13v3.67c0 .75-.375 1.13-1.125 1.13h-21c-.75 0-1.125-.38-1.125-1.13v-3.67c0-.75.375-1.13 1.125-1.13h4.65v-25.12h-4.65c-.75 0-1.125-.38-1.125-1.13V1032c0-.75.375-1.13 1.125-1.13h4.65v-7.27c0-6 1.875-9.83 5.625-11.48 1.55-.7 3.675-1.05 6.375-1.05s5.45.63 8.25 1.88c.45.2.675.45.675.75s-.025.52-.075.67l-1.125 3.75c-.25.6-.675.78-1.275.53-2-.9-3.9-1.35-5.7-1.35-1.8 0-2.975.6-3.525 1.8-.55 1.15-.825 3.25-.825 6.3v5.47h9.075c.75 0 1.125.38 1.125 1.13v3.82c0 .75-.375 1.13-1.125 1.13h-9.075Zm34.706 8.77v-2.62c0-3.55-1-5.78-3-6.68-.95-.4-2.325-.6-4.125-.6-3.4 0-5.45 1.6-6.15 4.8-.15.75-.525 1.13-1.125 1.13h-4.8c-.8 0-1.15-.38-1.05-1.13.2-3.65 1.675-6.32 4.425-8.02 2.75-1.7 6.25-2.55 10.5-2.55 8.95 0 13.425 4.1 13.425 12.3v19.72h3.225c.75 0 1.125.38 1.125 1.13v3.67c0 .75-.375 1.13-1.125 1.13h-8.85c-.65 0-1.025-.38-1.125-1.13l-.525-3.45c-2.7 3.65-6.6 5.48-11.7 5.48-3.2 0-5.85-.83-7.95-2.48-2.1-1.7-3.15-4.4-3.15-8.1 0-4.85 2.025-8.17 6.075-9.97 3.35-1.55 7.35-2.4 12-2.55.95 0 2.25-.03 3.9-.08Zm.15 10.95v-5.77c-4.8 0-7.75.22-8.85.67-1.1.45-2.075.9-2.925 1.35-1.6.85-2.4 2.4-2.4 4.65 0 3.45 1.975 5.18 5.925 5.18 2.6 0 4.625-.6 6.075-1.8 1.45-1.25 2.175-2.68 2.175-4.28Zm30.031-43.5v48.9h4.725c.75 0 1.125.38 1.125 1.13v3.67c0 .75-.375 1.13-1.125 1.13h-17.85c-.75 0-1.125-.38-1.125-1.13v-3.67c0-.75.375-1.13 1.125-1.13h4.725v-43.87h-4.05c-.75 0-1.125-.38-1.125-1.13v-3.9c0-.75.375-1.12 1.125-1.12h11.325c.75 0 1.125.37 1.125 1.12Zm22.046 0v48.9h4.725c.75 0 1.125.38 1.125 1.13v3.67c0 .75-.375 1.13-1.125 1.13h-17.85c-.75 0-1.125-.38-1.125-1.13v-3.67c0-.75.375-1.13 1.125-1.13h4.725v-43.87h-4.05c-.75 0-1.125-.38-1.125-1.13v-3.9c0-.75.375-1.12 1.125-1.12h11.325c.75 0 1.125.37 1.125 1.12Z" fill="#000"/></svg>

<svg width="822" height="1128" viewBox="0 0 822 1128" fill="none" xmlns="http://www.w3.org/2000/svg">
<rect y="6" width="822" height="1122" rx="50" fill="#F1F7EE"/>
<path d="M246.142 552.858L396.858 402.142C404.668 394.332 417.332 394.332 425.142 402.142L575.858 552.858C583.668 560.668 583.668 573.332 575.858 581.142L425.142 731.858C417.332 739.668 404.668 739.668 396.858 731.858L246.142 581.142C238.332 573.332 238.332 560.668 246.142 552.858Z" fill="#F7081D"/>
<mask id="mask0_1018_451" style="mask-type:alpha" maskUnits="userSpaceOnUse" x="411" y="396" width="171" height="342">
<rect x="411" y="396" width="171" height="342" fill="#D9D9D9"/>
</mask>
<g mask="url(#mask0_1018_451)">
<path d="M246.142 552.858L396.858 402.142C404.668 394.332 417.332 394.332 425.142 402.142L575.858 552.858C583.668 560.668 583.668 573.332 575.858 581.142L425.142 731.858C417.332 739.668 404.668 739.668 396.858 731.858L246.142 581.142C238.332 573.332 238.332 560.668 246.142 552.858Z" fill="#DC1021"/>
</g>
<path d="M58.5355 279.464L101.464 236.536C103.417 234.583 106.583 234.583 108.536 236.536L151.464 279.464C153.417 281.417 153.417 284.583 151.464 286.536L108.536 329.464C106.583 331.417 103.417 331.417 101.464 329.464L58.5355 286.536C56.5829 284.583 56.5829 281.417 58.5355 279.464Z" fill="#F7081D"/>
<mask id="mask1_1018_451" style="mask-type:alpha" maskUnits="userSpaceOnUse" x="105" y="235" width="48" height="96">
<rect x="105" y="235.235" width="47.7654" height="95.5307" rx="5" fill="#D9D9D9"/>
</mask>
<g mask="url(#mask1_1018_451)">
<path d="M58.5355 279.464L101.464 236.536C103.417 234.583 106.583 234.583 108.536 236.536L151.464 279.464C153.417 281.417 153.417 284.583 151.464 286.536L108.536 329.464C106.583 331.417 103.417 331.417 101.464 329.464L58.5355 286.536C56.5829 284.583 56.5829 281.417 58.5355 279.464Z" fill="#DC1021"/>
</g>
<path d="M78.8 155.2L69.6 182.2H81.6C83.6 182.2 84.6 183.2 84.6 185.2V195C84.6 197 83.6 198 81.6 198H39C37 198 36 197 36 195V185.2C36 183.2 37 182.2 39 182.2H50.8L90.8 65C91.6 63.1333 92.9333 62.2 94.8 62.2H114.2C116.067 62.2 117.4 63.1333 118.2 65L158.6 182.2H172.2C174.2 182.2 175.2 183.2 175.2 185.2V195C175.2 197 174.2 198 172.2 198H122C120 198 119 197 119 195V185.2C119 183.2 120 182.2 122 182.2H134.4L125 155.2H78.8ZM101.8 81.4L82.8 140.2H120.6L101.8 81.4Z" fill="black"/>
<path d="M269.669 1066.87L258.869 1023.15H254.969C254.219 1023.15 253.844 1022.77 253.844 1022.02V1018.2C253.844 1017.45 254.219 1017.07 254.969 1017.07H273.719C274.469 1017.07 274.844 1017.45 274.844 1018.2V1022.02C274.844 1022.77 274.469 1023.15 273.719 1023.15H268.394L276.419 1058.02L287.369 1018.12C287.569 1017.42 288.044 1017.07 288.794 1017.07H294.944C295.694 1017.07 296.169 1017.42 296.369 1018.12L307.244 1058.25L315.869 1023.15H310.919C310.169 1023.15 309.794 1022.77 309.794 1022.02V1018.2C309.794 1017.45 310.169 1017.07 310.919 1017.07H326.744C327.494 1017.07 327.869 1017.45 327.869 1018.2V1022.02C327.869 1022.77 327.494 1023.15 326.744 1023.15H322.769L311.219 1066.87C311.019 1067.62 310.544 1068 309.794 1068H302.744C301.994 1068 301.519 1067.65 301.319 1066.95L290.819 1029.6L280.769 1066.95C280.569 1067.65 280.094 1068 279.344 1068H271.094C270.344 1068 269.869 1067.62 269.669 1066.87ZM346.843 1045.72V1043.1C346.843 1039.55 345.843 1037.32 343.843 1036.42C342.893 1036.02 341.518 1035.82 339.718 1035.82C336.318 1035.82 334.268 1037.42 333.568 1040.62C333.418 1041.37 333.043 1041.75 332.443 1041.75H327.643C326.843 1041.75 326.493 1041.37 326.593 1040.62C326.793 1036.97 328.268 1034.3 331.018 1032.6C333.768 1030.9 337.268 1030.05 341.518 1030.05C350.468 1030.05 354.943 1034.15 354.943 1042.35V1062.07H358.168C358.918 1062.07 359.293 1062.45 359.293 1063.2V1066.87C359.293 1067.62 358.918 1068 358.168 1068H349.318C348.668 1068 348.293 1067.62 348.193 1066.87L347.668 1063.42C344.968 1067.07 341.068 1068.9 335.968 1068.9C332.768 1068.9 330.118 1068.07 328.018 1066.42C325.918 1064.72 324.868 1062.02 324.868 1058.32C324.868 1053.47 326.893 1050.15 330.943 1048.35C334.293 1046.8 338.293 1045.95 342.943 1045.8C343.893 1045.8 345.193 1045.77 346.843 1045.72ZM346.993 1056.67V1050.9C342.193 1050.9 339.243 1051.12 338.143 1051.57C337.043 1052.02 336.068 1052.47 335.218 1052.92C333.618 1053.77 332.818 1055.32 332.818 1057.57C332.818 1061.02 334.793 1062.75 338.743 1062.75C341.343 1062.75 343.368 1062.15 344.818 1060.95C346.268 1059.7 346.993 1058.27 346.993 1056.67ZM375.034 1037.02V1055.92C375.034 1058.27 375.334 1059.97 375.934 1061.02C376.534 1062.07 377.659 1062.6 379.309 1062.6C380.959 1062.6 382.559 1062.25 384.109 1061.55C384.659 1061.35 385.059 1061.55 385.309 1062.15L386.659 1065.6C386.709 1065.75 386.734 1065.97 386.734 1066.27C386.734 1066.52 386.484 1066.8 385.984 1067.1C383.584 1068.3 380.734 1068.9 377.434 1068.9C372.984 1068.9 370.059 1067.75 368.659 1065.45C367.659 1063.95 367.084 1062.5 366.934 1061.1C366.734 1059.2 366.634 1057.2 366.634 1055.1V1037.02H362.359C361.609 1037.02 361.234 1036.65 361.234 1035.9V1032C361.234 1031.25 361.609 1030.87 362.359 1030.87H366.634V1020.75C366.634 1020 367.009 1019.62 367.759 1019.62H373.909C374.659 1019.62 375.034 1020 375.034 1020.75V1030.87H382.609C383.359 1030.87 383.734 1031.25 383.734 1032V1035.9C383.734 1036.65 383.359 1037.02 382.609 1037.02H375.034ZM407.67 1068.9C401.72 1068.9 397.345 1067.17 394.545 1063.72C391.795 1060.22 390.42 1055.62 390.42 1049.92C390.42 1044.17 391.895 1039.42 394.845 1035.67C397.795 1031.92 402.045 1030.05 407.595 1030.05C410.345 1030.05 412.695 1030.57 414.645 1031.62C416.645 1032.62 418.17 1034 419.22 1035.75C421.22 1039.15 422.22 1043.07 422.22 1047.52C422.22 1049.62 422.12 1050.77 421.92 1050.97C421.72 1051.17 421.345 1051.27 420.795 1051.27H398.745C398.995 1054.87 399.87 1057.67 401.37 1059.67C402.92 1061.62 405.57 1062.6 409.32 1062.6C412.07 1062.6 414.895 1061.95 417.795 1060.65C418.495 1060.3 418.995 1060.5 419.295 1061.25L420.72 1064.7C420.97 1065.3 420.745 1065.8 420.045 1066.2C416.745 1068 412.62 1068.9 407.67 1068.9ZM398.745 1045.72H414.345C414.445 1039.47 411.995 1036.35 406.995 1036.35C404.045 1036.35 401.945 1037.3 400.695 1039.2C399.495 1041.05 398.845 1043.22 398.745 1045.72ZM439.489 1037.32C440.339 1035.32 441.714 1033.62 443.614 1032.22C445.514 1030.77 447.589 1030.05 449.839 1030.05C452.089 1030.05 453.814 1030.25 455.014 1030.65C455.614 1030.85 455.914 1031.3 455.914 1032V1042.12C455.914 1042.87 455.539 1043.25 454.789 1043.25H449.914C449.164 1043.25 448.814 1042.87 448.864 1042.12L449.164 1037.77C448.914 1037.72 448.489 1037.7 447.889 1037.7C445.589 1037.7 443.689 1038.65 442.189 1040.55C440.689 1042.4 439.939 1044.9 439.939 1048.05V1062.07H448.189C448.939 1062.07 449.314 1062.45 449.314 1063.2V1066.87C449.314 1067.62 448.939 1068 448.189 1068H427.564C426.814 1068 426.439 1067.62 426.439 1066.87V1063.2C426.439 1062.45 426.814 1062.07 427.564 1062.07H431.539V1037.02H427.489C426.739 1037.02 426.364 1036.65 426.364 1035.9V1032C426.364 1031.25 426.739 1030.87 427.489 1030.87H437.389C438.089 1030.87 438.514 1031.25 438.664 1032L439.489 1037.32ZM474.002 1036.95V1062.07H481.952C482.702 1062.07 483.077 1062.45 483.077 1063.2V1066.87C483.077 1067.62 482.702 1068 481.952 1068H460.952C460.202 1068 459.827 1067.62 459.827 1066.87V1063.2C459.827 1062.45 460.202 1062.07 460.952 1062.07H465.602V1036.95H460.952C460.202 1036.95 459.827 1036.57 459.827 1035.82V1032C459.827 1031.25 460.202 1030.87 460.952 1030.87H465.602V1023.6C465.602 1017.6 467.477 1013.77 471.227 1012.12C472.777 1011.42 474.902 1011.07 477.602 1011.07C480.302 1011.07 483.052 1011.7 485.852 1012.95C486.302 1013.15 486.527 1013.4 486.527 1013.7C486.527 1014 486.502 1014.22 486.452 1014.37L485.327 1018.12C485.077 1018.72 484.652 1018.9 484.052 1018.65C482.052 1017.75 480.152 1017.3 478.352 1017.3C476.552 1017.3 475.377 1017.9 474.827 1019.1C474.277 1020.25 474.002 1022.35 474.002 1025.4V1030.87H483.077C483.827 1030.87 484.202 1031.25 484.202 1032V1035.82C484.202 1036.57 483.827 1036.95 483.077 1036.95H474.002ZM508.708 1045.72V1043.1C508.708 1039.55 507.708 1037.32 505.708 1036.42C504.758 1036.02 503.383 1035.82 501.583 1035.82C498.183 1035.82 496.133 1037.42 495.433 1040.62C495.283 1041.37 494.908 1041.75 494.308 1041.75H489.508C488.708 1041.75 488.358 1041.37 488.458 1040.62C488.658 1036.97 490.133 1034.3 492.883 1032.6C495.633 1030.9 499.133 1030.05 503.383 1030.05C512.333 1030.05 516.808 1034.15 516.808 1042.35V1062.07H520.033C520.783 1062.07 521.158 1062.45 521.158 1063.2V1066.87C521.158 1067.62 520.783 1068 520.033 1068H511.183C510.533 1068 510.158 1067.62 510.058 1066.87L509.533 1063.42C506.833 1067.07 502.933 1068.9 497.833 1068.9C494.633 1068.9 491.983 1068.07 489.883 1066.42C487.783 1064.72 486.733 1062.02 486.733 1058.32C486.733 1053.47 488.758 1050.15 492.808 1048.35C496.158 1046.8 500.158 1045.95 504.808 1045.8C505.758 1045.8 507.058 1045.77 508.708 1045.72ZM508.858 1056.67V1050.9C504.058 1050.9 501.108 1051.12 500.008 1051.57C498.908 1052.02 497.933 1052.47 497.083 1052.92C495.483 1053.77 494.683 1055.32 494.683 1057.57C494.683 1061.02 496.658 1062.75 500.608 1062.75C503.208 1062.75 505.233 1062.15 506.683 1060.95C508.133 1059.7 508.858 1058.27 508.858 1056.67ZM538.889 1013.17V1062.07H543.614C544.364 1062.07 544.739 1062.45 544.739 1063.2V1066.87C544.739 1067.62 544.364 1068 543.614 1068H525.764C525.014 1068 524.639 1067.62 524.639 1066.87V1063.2C524.639 1062.45 525.014 1062.07 525.764 1062.07H530.489V1018.2H526.439C525.689 1018.2 525.314 1017.82 525.314 1017.07V1013.17C525.314 1012.42 525.689 1012.05 526.439 1012.05H537.764C538.514 1012.05 538.889 1012.42 538.889 1013.17ZM560.935 1013.17V1062.07H565.66C566.41 1062.07 566.785 1062.45 566.785 1063.2V1066.87C566.785 1067.62 566.41 1068 565.66 1068H547.81C547.06 1068 546.685 1067.62 546.685 1066.87V1063.2C546.685 1062.45 547.06 1062.07 547.81 1062.07H552.535V1018.2H548.485C547.735 1018.2 547.36 1017.82 547.36 1017.07V1013.17C547.36 1012.42 547.735 1012.05 548.485 1012.05H559.81C560.56 1012.05 560.935 1012.42 560.935 1013.17Z" fill="black"/>
</svg>
